X:1
T:Miserere mei
T:Miserere mei
T:T.L.Victoria (1540-1613)
C:T.L.Victoria (1540-1613)
%%score [ 1 2 3 4 ]
L:1/8
Q:1/4=120
M:4/4
K:C
V:1 treble nm="Alto"
V:2 treble-8 nm="Tenor I"
V:3 treble-8 nm="Tenor II"
V:4 bass nm="Bass"
V:1
 A8 || A2 A4 c2 | (B2 G4 ^F2) | !fermata!G8 || G8 || ^G4 A4 | G8 | !fermata!^F8 |] %8
w: Et\_exultavit|spi- ri- tus|me- * *|us|in\_Deo\_salu-|ta- ri|me-|o.|
[K:F]"^Tonus II" G8 || A3 A B2 (c2- | cB B4) A2 | !fermata!B8 || A8 || (G4 A2) G2 | (^F2 G4 F2) | %15
w: Et\_exultavit|spi- ri- tus me-||us|in\_Deo\_salu-|ta- * ri|me- * *|
 !fermata!G8 |][K:C]"^Tonus III" A8 || A2 A4 d2 | A8 | !fermata!A8 || G8 || (G2 c2 B2) (c2- | %22
w: o.|Et\_exultavit|spi- ri- tus|me-|us|in\_Deo\_salu-|ta- * * ri|
 cB A4) ^G2 | !fermata!A8 |][K:Bb] G8 || (A3 G F2) F2- | F2 F2 G4 | !fermata!C8 || E8 || F8 | %30
w: _ _ _ me-|o.|Et\_exultavit|spi- * * ri-|* tus me-|us|in\_Deo\_salu-|ta-|
 (G3 A B2 A2) | G4 !fermata!^F4 |][K:C]"^Tonus V" A8 || A4 c2 c2 | _B8 | !fermata!A8 || F8 || %37
w: ri _ _ _|me- o.|Et\_exultavit|spi- ri- tus|me-|us|in\_Deo\_salu-|
 G4 (G2 F2) | (F6 E2) | !fermata!F8 |][K:F]"^Tonus VI" F8 || F4 F2 G2- | G2 ^F2 !fermata!G4 || G8 | %44
w: ta- ri _|me- *|o.|Et\_exultavit|spi- ri- tus|* me- us|in\_Deo\_salu-|
 (G4 A4) | (A2 B2 F2) (G2- | GF F4 E2) | !fermata!F8 |] F8 || F2 F4 G2 | F4 E4 || !fermata!G8 || %52
w: ta- *|ri * * me-||o.|Et\_exultavit|spi- ri- tus|me- us|in\_Deo\_salu-|
 G4 (F3 G | AB c4 A2) | (F3 G A4) | !fermata!^F8 |][K:D]"^Tonus VIII" F2 G8 || F4 F2 F2 | %58
w: ta- ri _|_ _ _ _|me- * *|o.|Et\_exultavit *|spi- ri- tus|
 E4 !fermata!F4 || F2 G8 | E4 E4 | F4 !fermata!E4 |] %62
w: me- us|in\_Deo\_salu- *|ta- ri|me- o.|
V:2
 e8 || f2 f4 e2 | d8 | !fermata!d8 || E8 || (e4 c2) f2 | (d6 ^c2) | !fermata!d8 |][K:F] d8 || %9
w: Et\_exultavit|spi- ri- tus|me-|us|in\_Deo\_salu-|ta- * ri|me- *|o.|Et\_exultavit|
 f3 f g4 | f8 | !fermata!f8 || f8 || (d4 f2) e2 | d8 | !fermata!d8 |][K:C] e8 || (f3 e/d/ c2) (e2 | %18
w: spi- ri- tus|me-|us|in\_Deo\_salu-|ta- * ri|me-|o.|Et\_exultavit|spi- * * * ri-|
 d2) f2 e4 | !fermata!^f8 || d8 || (e4 d2) e2 | (c3 d e4) | !fermata!e8 |][K:Bb] d8 || %25
w: * tus me-|us|in\_Deo\_salu-|ta- * ri|me- * *|o.|Et\_exultavit|
 (f2 c2) d4- | d2 c2 B4 | !fermata!A8 || c8 || d4 d4- | d4 d4- | d4 !fermata!d4 |][K:C] f8 || %33
w: spi- * ri-|* tus me-|us|in\_Deo\_salu-|ta- ri|_ me-|* o.|Et\_exultavit|
 e4 a2 a2 | (f4 g4) | !fermata!c8 || f8 || d4 (e2 c2) | (d4 c4) | !fermata!c8 |][K:F] c8 || %41
w: spi- ri- tus|me- *|us|in\_Deo\_salu-|ta- ri _|me- *|o.|Et\_exultavit|
 d4 d2 c2 | d4 !fermata!d4 || d8 | (e4 f4) | (f3 e) d2 (d2- | dcAB c4) | !fermata!c8 |] d8 || %49
w: spi- ri- tus|me- us|in\_Deo\_salu-|ta- *|ri _ _ me-||o.|Et\_exultavit|
 c2 c4 c2 | d4 G4 || !fermata!_e8 || d8 | (c8 | d2) (d3 ^c/=B/ c2) | !fermata!d8 |][K:D] d2 d8 || %57
w: spi- ri- tus|me- us|in\_Deo\_salu-|ta-|ri|_ me- * * *|o.|Et\_exultavit *|
 d4 c2 (d2- | dc/B/) c2 !fermata!d4 || d2 d8 | c4 B4 | d4 !fermata!c4 |] %62
w: spi- ri- tus|* * * me- us|in\_Deo\_salu- *|ta- ri|me- o.|
V:3
 c8 || c4 d2 G2 | (B4 A4) | !fermata!B8 || c8 || (B4 A2) d2 | (B3 A G4) | !fermata!A8 |][K:F] B8 || %9
w: Et\_exultavit|spi- ri- tus|me- *|us|in\_Deo\_salu-|ta- * ri|me- * *|o.|Et\_exultavit|
 c3 c _e4 | (d4 c4) | !fermata!d8 || c8 || (B4 c4- | c2) B2 A4 | !fermata!=B8 |][K:C] c8 || %17
w: spi- ri- tus|me- *|us|in\_Deo\_salu-|ta- *|* ri me-|o.|Et\_exultavit|
 c3 B (A2 G2) | (FD d4 ^c2) | !fermata!d8 || B8 || (c2 G4) G2 | (A4 B4) | !fermata!^c8 |] %24
w: spi- ri- tus *|me- * * *|us|in\_Deo\_salu-|ta- * ri|me- *|o.|
[K:Bb] B8 || c2 (A4 B2- | B2) F4 =E2 | !fermata!F8 || G8 || B4 A2 (B2- | B3 A G2 A2) | %31
w: Et\_exultavit|spi- ri- *|* tus me-|us|in\_Deo\_salu-|ta- * ri|_ _ _ _|
 B4 !fermata!A4 |][K:C] c8 || c3 d (e2 f2) | (d3 c _B4) | !fermata!c8 || d8 || B4 (c2 A2) | %38
w: me- o.|Et\_exultavit|spi- ri- tus _|me- * *|us|in\_Deo\_salu-|ta- ri _|
 (_B3 A G4) | !fermata!F8 |][K:F] A8 || B4 A2 G2 | A4 !fermata!=B4 || =B8 | (e8 | d3 c B2) B2 | %46
w: me- * *|o.|Et\_exultavit|spi- ri- tus|me- us|in\_Deo\_salu-|ta-|* * * ri|
 (A3 G/F/ G4) | !fermata!F8 |] A8 || A2 A4 G2 | (A2 =B2) c4 || !fermata!c8 || (B4 A4) | A6 (F2- | %54
w: me- * * *|o.|Et\_exultavit|spi- ri- tus|me- * us|in\_Deo\_salu-|ta- *|ri me-|
 FE D2 E4) | !fermata!D8 |][K:D] A2 B8 || B4 A2 A2 | A4 !fermata!A4 || A2 B8 | A4 ^G4 | %61
w: |o.|Et\_exultavit *|spi- ri- tus|me- us|in\_Deo\_salu- *|ta- ri|
 A4 !fermata!A4 |] %62
w: me- o.|
V:4
 A,8 || F,3 E, (D,2 C,2) | (G,4 D,4) | !fermata!G,,8 || C,8 || (E,4 F,2) D,2 | (G,3 F, E,4) | %7
w: Et\_exultavit|spi- ri- tus _|me- *|us|in\_Deo\_salu-|ta- * ri|me- * *|
 !fermata!D,8 |][K:F] G,8 || F,3 F, _E,4 | F,8 | !fermata!B,,8 || F,8 || (G,4 F,2) C,2 | D,8 | %15
w: o.|Et\_exultavit|spi- ri- tus|me-|us|in\_Deo\_salu-|ta- * ri|me-|
 !fermata!G,,8 |][K:C] A,8 || F,2 F,4 C,2 | (D,4 A,4) | !fermata!D,8 || G,8 || (C,4 G,2) (E,2 | %22
w: o.|Et\_exultavit|spi- ri- tus|me- *|us|in\_Deo\_salu-|ta- * ri|
 F,4 E,4) | !fermata!A,,8 |][K:Bb] G,8 || F,3 E, (D,C, B,,2- | B,,2 A,,2) G,,4 | !fermata!F,,8 || %28
w: _ _|o.|Et\_exultavit|spi- ri- tus _ _|_ _ me-|us|
 C,8 || (B,,3 C, D,C,B,,A,, | G,,2 G,4) ^F,2 | G,4 !fermata!D,4 |][K:C] F,8 || A,4 A,2 F,2 | %34
w: in\_Deo\_salu-|ta- * * * * *|* * ri|me- o.|Et\_exultavit|spi- ri- tus|
 (_B,3 A, G,4) | !fermata!F,8 || D,8 || G,4 (E,2 F,2) | (_B,,4 C,4) | !fermata!F,8 |][K:F] F,8 || %41
w: me- * *|us|in\_Deo\_salu-|ta- ri _|me- *|o.|Et\_exultavit|
 B,,3 C, (D,2 _E,2) | D,4 !fermata!G,,4 || G,8 | (C,4 F,3 E, | D,C, B,,4) G,,2 | (D,4 C,4) | %47
w: spi- ri- tus _|me- us|in\_Deo\_salu-|ta- * *|* * * ri|me- *|
 !fermata!F,,8 |] D,8 || F,2 F,4 E,2 | D,4 C,4 || !fermata!C,8 || (G,3 F, D,3 E, | %53
w: o.|Et\_exultavit|spi- ri- tus|me- us|in\_Deo\_salu-|ta- * * *|
 F,G, A,2 F,2) F,,2 | (B,,4 A,,4) | !fermata!D,8 |][K:D] D,2 G,8 || B,4 F,2 F,2 | %58
w: * * * * ri|me- *|o.|Et\_exultavit *|spi- ri- tus|
 A,4 !fermata!D,4 || D,2 G,8 | A,4 E,4 | D,4 !fermata!A,,4 |] %62
w: me- us|in\_Deo\_salu- *|ta- ri|me- o.|

